X: 1
T:An Dro
C:Fluxus
M:4/4
L:1/8
K:C
ABcB A2e2|c2A2 B2e2|dedc B2A2|c2A2B4|\
ABcB A2e2|c2A2 B2e2|dedc B2A2|cABG A4:|
|:ABcd e2e2|d2g2 e4|ABce d3e|dedc B4|\
ABcd e2e2|d2g2 e4|ABce d3B|cABG A4:|
